X:1
T:C Major Samuel Babcock, 1803
T:Philip Doddridge, 1755 The Eternal Sabbath           88. 88. (L. M.)
T:Sabbath
T:Transcribed from The Middlesex Harmony, 1803.
%%score [ 1 2 3 4 ]
L:1/8
Q:1/4=150
M:4/4
K:C
V:1 treble nm="Tr." snm="Tr."
V:2 treble nm="C." snm="C."
V:3 treble-8 nm="T." snm="T."
V:4 bass nm="B." snm="B."
V:1
 G4 c2 c2 | e2 c2 fe dc | B6 d2 | g2 e2 d2 c2 | B4 A4 | G6 EF | G2 c2 B2 G2 | A4 B4 | c6 A2 | %9
w: 1.~Lord of the|Sab- bath, hear * our *|vows, On|this thy day, in|this thy|house: And *|let our songs and|wor- ship|rise Like|
 G2 c2 A2 f2 | e4 d4 | e8 |: e4 e2 e2 | e2 c2 fe dc | B3 c e2 c2 | A2 c2 G2 Gc | B6 cd | %17
w: grate- ful in- cense|to the|skies,|Thine earth- ly|Sab- baths, Lord, * we *|love, But there's a|no- bler rest a- *|bove, To *|
 e2 c2 B2 A2 | G2 ^F2 G3 c | e2 c2 B2 c2 | A2 c2 B3 c | e2 e2 c2 d2 | c4 B4 | c8 :| %24
w: that our la- boring|souls a- spire With|ar- dent pangs of|strong de- sire. With|ar- dent pangs of|strong de-|sire.|
V:2
 E4 G2 G2 | G2 E2 A2 A2 | G6 G2 | G2 G2 G2 G2 | G4 ^F4 | G6 G2 | G2 G2 G2 E2 | (A2 F2) G4 | G6 A2 | %9
w: 2.~No more fa-|tigue, no more dis-|tress; Nor|sin nor hell shall|reach the|place; No|groans to min- gle|with * the|songs Which|
 G2 G2 A2 A2 | G4 G4 | G8 |: G4 G2 G2 | G2 E2 A2 A2 | G3 G G2 E2 | A2 A2 G2 G2 | %16
w: war- ble from im-|mor- tal|tongues.|No rude a-|larms of ra- ging|foes; No cares to|break the long re-|
 G6"^No            mid  –  night  shade,  no" z2 | z8 |"^clou  –  ded  sun," z4 z2 z G | %19
w: pose;||But|
 A2 G2 G2 G2 | A2 A2 G3 G | G2 G2 A2 A2 | G4 G4 | E8 :| %24
w: sa- cred, high, e-|ter- nal noon, But|sa- cred, high, e-|ter- nal|noon.|
V:3
 c4 e2 e2 | c2 e2 dc BA | G6 B2 | c2 c2 d2 e2 | d4 c4 | B6 G2 | c2 c2 d2 cB | c4 d4 | e6 f2 | %9
w: 3.~O long- ex-|pec- ted day, * be- *|gin; Dawn|on these realms of|woe and|sin; Fain|would be leave this *|wea- ry|road, And|
 e2 e2 d2 d2 | c4 B4 | c8 |: c4 c2 c2 | G2 E2 FG A2 | G3 G c2 c2 | f2 e2 d2 c2 | d6 ef | %17
w: sleep in death to|rest with|God.|O long- ex-|pect- ted day, * be-|gin; Dawn on these|realms of woe and|sin; Fain *|
 g2 e2 d2 c2 | B2 A2 G3 G | c2 e2 d2 c2 | f2 e2 d3 e | e2 c2 A2 f2 | e4 d4 | c8 :| %24
w: would we leave this|wea- ry road, And|sleep in death to|rest with God, And|sleep in death to|rest with|God.|
V:4
 C,4 C,2 C,2 | C,2 C,2 D,2 D,2 | G,6 G,2 | E,2 C,2 G,,2 C,2 | D,4 D,4 | G,,6 C,2 | %6
 C,2 C,2 G,2 G,2 | A,4 G,4 | C,6 D,2 | E,2 E,2 F,2 D,2 | G,4 G,,4 | C,8 |: C,4 C,2 C,2 | %13
 C,2 C,2 D,2 D,2 | G,3 C, C,2 E,2 | D,2 C,2 G,2 C2 | G,6 z2 | z8 | z4 z2 z C | A,2 C2 G,2 E,2 | %20
 D,2 C,2 G,3 C, | C,2 E,2 F,2 D,2 | G,4 G,,4 | C,8 :| %24

